X: 42971
T: Willie Fraser's
R: strathspey
M: 4/4
K: Dmajor
g/|f2 d>B A>B d<f|g>e f/d> e4 (e<g)|f2 d>B A>B d<e|f>a e<f d2 (e>g)|
f2 d>B A>B d<f|g>e f/d> ee/e (e<g)|f<d e/f> (dB>) A2>F|G>B A>F D/D/D (A/B>)||
A2<DF>E D>B d<f|g>e f/d> ee/e (e<f)|A<D F>E D>F A<F|G>B A>F D/D/D (A/B>)|
A2<DF>E D>F d<f|g>ef>d e/e/e (e<g)|f2 d>B A>B d<e|f>a e<f d2 (e>g)||

